exported-svg/refresh-cw.svg

<svg height="24" viewBox="0 0 24 24" width="24" xmlns="http://www.w3.org/2000/svg"><path d="m23.0000015 9.34199727v-4.84406895c0-.27614237.2238576-.5.5-.5s.5.22385763.5.5v5.99999998c0 .2761424-.2238576.5-.5.5h-6c-.2761424 0-.5-.2238576-.5-.5s.2238576-.49999998.5-.49999998h4.7377957l-3.7314377-3.50653521c-2.0631947-2.06422903-5.0411551-2.92560718-7.8877292-2.28153386-2.84657399.64407331-5.16366033 2.70352264-6.13727076 5.45486719-.09212006.26032385-.37783229.39667996-.63815614.30455991-.26032385-.09212006-.39667997-.3778323-.30455991-.63815614 1.08815284-3.07503215 3.67783756-5.37676964 6.85930261-6.09661628 3.1814651-.71984665 6.5097738.2428701 8.8044437 2.53903786zm-20.99999999 6.31186213v4.8440689c0 .2761424-.22385762.5-.5.5-.27614237 0-.5-.2238576-.5-.5v-6c0-.2761424.22385763-.5.5-.5h6c.27614238 0 .5.2238576.5.5s-.22385762.5-.5.5h-4.73779571l3.73143769 3.5065352c2.06319476 2.0642291 5.04115521 2.9256072 7.88772921 2.2815339s5.1636604-2.7035226 6.1372708-5.4548672c.09212-.2603238.3778323-.39668.6381561-.3045599.2603239.0921201.39668.3778323.3045599.6381561-1.0881528 3.0750322-3.6778375 5.3767697-6.8593026 6.0966163-3.1814651.7198467-6.50977381-.2428701-8.80444368-2.5390378z"/></svg>

<?xml version="1.0" encoding="UTF-8"?>
<svg width="24px" height="24px" viewBox="0 0 24 24" version="1.1" xmlns="http://www.w3.org/2000/svg" xmlns:xlink="http://www.w3.org/1999/xlink">
    <!-- Generator: Sketch 55.2 (78181) - https://sketchapp.com -->
    <title>refresh-cw</title>
    <desc>Created with Sketch.</desc>
    <g id="refresh-cw" stroke="none" stroke-width="1" fill="none" fill-rule="evenodd">
        <path d="M23.0000015,9.34199727 L23.0000015,4.49792832 C23.0000015,4.22178595 23.2238591,3.99792832 23.5000015,3.99792832 C23.7761439,3.99792832 24.0000015,4.22178595 24.0000015,4.49792832 L24.0000015,10.4979283 C24.0000015,10.7740707 23.7761439,10.9979283 23.5000015,10.9979283 L17.5000015,10.9979283 C17.2238591,10.9979283 17.0000015,10.7740707 17.0000015,10.4979283 C17.0000015,10.2217859 17.2238591,9.99792832 17.5000015,9.99792832 L22.2377972,9.99792832 L18.5063595,6.49139311 C16.4431648,4.42716408 13.4652044,3.56578593 10.6186303,4.20985925 C7.77205631,4.85393256 5.45496997,6.91338189 4.48135954,9.66472644 C4.38923948,9.92505029 4.10352725,10.0614064 3.8432034,9.96928635 C3.58287955,9.87716629 3.44652343,9.59145405 3.53864349,9.33113021 C4.62679633,6.25609806 7.21648105,3.95436057 10.3979461,3.23451393 C13.5794112,2.51466728 16.9077199,3.47738403 19.2023898,5.77355179 L23.0000015,9.34199727 Z M2.00000151,15.6538594 L2.00000151,20.4979283 C2.00000151,20.7740707 1.77614389,20.9979283 1.50000151,20.9979283 C1.22385914,20.9979283 1.00000151,20.7740707 1.00000151,20.4979283 L1.00000151,14.4979283 C1.00000151,14.2217859 1.22385914,13.9979283 1.50000151,13.9979283 L7.50000151,13.9979283 C7.77614389,13.9979283 8.00000151,14.2217859 8.00000151,14.4979283 C8.00000151,14.7740707 7.77614389,14.9979283 7.50000151,14.9979283 L2.7622058,14.9979283 L6.49364349,18.5044635 C8.55683825,20.5686926 11.5347987,21.4300707 14.3813727,20.7859974 C17.2279467,20.1419241 19.5450331,18.0824748 20.5186435,15.3311302 C20.6107635,15.0708064 20.8964758,14.9344502 21.1567996,15.0265703 C21.4171235,15.1186904 21.5534796,15.4044026 21.4613595,15.6647264 C20.3732067,18.7397586 17.783522,21.0414961 14.6020569,21.7613427 C11.4205918,22.4811894 8.09228309,21.5184726 5.79761322,19.2223049 L2.00000151,15.6538594 Z" id="Combined-Shape" fill="#000000" fill-rule="nonzero"></path>
    </g>
</svg>
